X:239
T: BRUEDER DAS IST DEUTSCHER WEIN
N: F0416
O: Europa, Mitteleuropa, Deutschland
R: Vaterlands -, Heimat - Lied, nationalistisch, Trink - Lied
M: 4/4
L: 1/8
K: C
 | C3G,A,2E,2 | F,4G,4 | C,6z2 |
C2D2F2E2 | D2C2B,2G,2 |
E2D2F2E2 | EDC2B,2G,2 |
C3B,A,2A,2 | D3CB,4 |
F3FE2E2 | D4D4 | C4z4

@@@ Tune index: 5670
